X: 39956
T: Thrashing Of The Oats, The
R: polka
M: 2/4
K: Gmajor
|:D/|G2 AB|cA dB|G2 A>B|cA FD|
G2 A>B|cA d>e|fd cA|BG G3/2:|
|:d/|g2 ag|fd de|fd d>e|fe fd|
g2 a>g|fd d>e|fd cA|BG G3/2:|

